X: 19119
T: Irish Stew
R: reel
M: 4/4
K: Amajor
|:cBAc BAGB|Aaga fecA|GBEG Bcdf|edcd B2 ed|
cBAc BAGB|Aaga fecA|GABc defg|1 a2 A2 A2 ed:|2 a2 A2 A2 cd||
|:eaga eaga|eaga fecA|GABc dcde|fedc B2 cd|
eaga eaga|eaga fecA|GABc defg|1 a2 A2 A2 cd:|2 a2 A2 A2 z2||

